X:1
T:Title
%%score [ ( 1 2 ) ( 3 4 ) ]
L:1/8
Q:1/4=100
M:4/4
K:Db
V:1 treble nm="Midi_74"
V:2 treble 
V:3 bass nm="Midi_69"
V:4 bass 
V:1
"^St John (66. 66. 88)""^John Bacchus Dykes\n(1823-76)""^Samuel Crossman\n(1624-84)""^My song is love unknown" F2 | %1
 F2 E2 D2 E2 | F6 F2 | A2 G2 F2 G2 | A6 || A2 | B2 B2 e2 c2 | A2 A2 d2 B2 | G4 F4 | E6 || A2 | %11
 e2 c2 d2 c2 | B2 A2 G2 F2 | E2 B2 G2 E2 | D4 E4 | D6 |] %16
V:2
 D2 | D2 C2 B,2 C2 | D6 D2 | D2 C2 C2 C2 | D6 || D2 | D2 D2 C2 E2 | E2 D2 D2 D2 | A,4 (D2 B,2) | %9
w: My|song is love un-|known, My|Sa- viour's love to|me,|Love|to the love- less|shown, That they might|love- ly *|
w: He|came from His blest|throne, Sal-|va- tion to be-|stow;|But|men made strange, and|none The longed- for|Christ would *|
w: ~~Some-|times they strew His|way, And|His sweet prais- es|sing;|Re-|sound- ing all the|day Ho- san- nas|to their *|
w: Why,|what has my Lord|done? What|made this rage and|spite?|He|made the lame to|run, He gave the|blind their *|
w: They|rise, and needs will|have My|dear Lord made a-|way;|A|mur- der- er they|save, The Prince of|Life they *|
w: In|life, no house, no|home My|Lord on earth might|have;|In|death, no friend- ly|tomb But what a|strang- er *|
w: Here|might I stay and|sing, No|sto- ry so di-|vine;|Ne-|ver was love, Dear|King, Ne- ver was|grief like *|
 C6 || E2 | E2 A2 A2 A2 | G2 F2 E2 D2 | _D2 D2 B,2 B,2 | A,4 C4 | D6 |] %16
w: be.|O|who am I that|for my sake My|Lord should take frail|flesh and|die.|
w: know.|But|O, my Friend, my|Friend in- deed, Who|at my need His|life did|spend.|
w: king.|Then|"Cru- ci- fy!" Is|all their breath, And|for His death they|thirst and|cry.|
w: sight.|Sweet|in- jur- ies! Yet|they at these Them-|selves dis- please, and|'gainst Him|rise.|
w: slay.|Yet|cheer- ful He to|suffer- ing goes, That|He His foes from|thence might|free.|
w: gave.|What|may I say? Heaven|was His home; But|mine the tomb where-|in He|lay.|
w: Thine.|This|is my Friend, in|whose sweet praise I|all my days could|glad- ly|spend.|
V:3
 A,2 | A,2 G,2 G,2 G,2 | F,6 A,2 | A,2 A,2 A,2 A,2 | D6 || C2 | B,2 B,2 A,2 A,2 | A,2 A,2 A,2 G,2 | %8
 E,4 A,2 =G,2 | A,6 || C2 | C2 E2 D2 D2 | D2 B,2 B,2 A,2 | B,2 E,2 E,2 G,2 | F,4 G,4 | F,6 |] %16
V:4
 D,2 | D,2 D,2 D,2 D,2 | D,6 D,2 | F,2 E,2 E,2 E,2 | F,6 || F,2 | G,2 G,2 G,2 G,2 | %7
 F,2 F,2 B,,2 B,,2 | C,4 D,4 | A,,6 || A,2 | G,2 G,2 F,2 F,2 | G,2 =D,2 E,2 F,2 | %13
 G,2 G,,2 G,,2 G,,2 | A,,4 A,,4 | D,6 |] %16

